X:19
T:Hive Bonnet(A Quick March),The. JJo.019
S:J.Jones MS,1801,N.Shrops.
A:N Shropshire
Z:Neil Brookes 2006
M:6/8
L:1/8
Q:3/8=110
K:C
G|c>dc ceg|faa abc’|g>ag gec|ded dBG|!
c>dc ceg|faa abc’|gee fdB|”_dcr in MS”ccc c2::!
g|c’d’c’ bag|abc’ gfe|fga gec|Bddd2G|!
cdc gfe|faa abc’|gee fdB|”_dcr in MS”ccc c2:|

